X:12
T:The Haymakers
T:The Hay Makers
M:C/
K:F
L:1/4
|:"F"f2 e/f/g/e/|f c c B|A G/F/ "C"G c|"F"A2 "C"G2|
  "F"f2 e/f/g/e/|f c c f|"C"g/a/ b b a|g2 c2:|
|:"F"A/B/c/d/ c2|A c c2|A/B/c/d/ "C"c/B/A/G/|"F"A f f2|
  f/g/a/g/ f/g/a/g/|f c c B|A/B/ c "C"c B|"F"A2 F2:|
W: Longways Duple Minor
